src/containers/Contact/gurushots.svg

<svg viewBox="0 0 526 526" xmlns="http://www.w3.org/2000/svg"><g fill="none" fill-rule="evenodd"><path d="m263.003891 512.004637c137.518902 0 249-111.481098 249-249 0-137.518903-111.481098-249.0000004-249-249.0000004-137.518903 0-249.0000004 111.4810974-249.0000004 249.0000004-.1820331 22.731346 4.8234793 51.119018 15.0165374 85.163015 10.193058 34.043997 23.6042479 60.503834 40.2335695 79.379509" stroke="#000" stroke-linecap="round" stroke-width="28" transform="matrix(.17364818 -.98480775 .98480775 .17364818 -41.679152 476.337995)"/><g fill="#000"><g transform="translate(146 63.575906)"><path d="m71.1132813 4.59596884c-9.1262679 3.22953593-16.9560181 25.28351736-23.4892505 66.16194416-6.5332325 40.878427-2.8577576 75.80368 11.0264247 104.775758 23.1162012-36.900798 49.8233405-66.914256 80.1214185-90.0403741 30.298079-23.1261182 63.620214-38.9981442 99.966407-47.6160781-11.904665-16.0595415-38.20805-27.1532915-78.910156-33.28124996-40.702106-6.12795845-70.2737205-6.12795845-88.7148437 0z"/><path d="m26.6250387 230.020063c-9.1262679 3.229536-16.95601801 25.283517-23.48925045 66.161944s-2.85775752 75.803679 11.02642475 104.775758c23.1162012-36.900798 49.8233408-66.914256 80.1214189-90.040374s63.6202141-38.998144 99.9664071-47.616078c-11.904665-16.059542-38.208051-27.153292-78.910157-33.28125-40.7021055-6.127959-70.27372-6.127959-88.7148433 0z" transform="matrix(-1 0 0 -1 194.250038 626.381858)"/></g><g transform="matrix(.5 .8660254 -.8660254 .5 379.388093 60.33587)"><path d="m71.1132813 4.59596884c-9.1262679 3.22953593-16.9560181 25.28351736-23.4892505 66.16194416-6.5332325 40.878427-2.8577576 75.80368 11.0264247 104.775758 23.1162012-36.900798 49.8233405-66.914256 80.1214185-90.0403741 30.298079-23.1261182 63.620214-38.9981442 99.966407-47.6160781-11.904665-16.0595415-38.20805-27.1532915-78.910156-33.28124996-40.702106-6.12795845-70.2737205-6.12795845-88.7148437 0z"/><path d="m26.6250387 230.020063c-9.1262679 3.229536-16.95601801 25.283517-23.48925045 66.161944s-2.85775752 75.803679 11.02642475 104.775758c23.1162012-36.900798 49.8233408-66.914256 80.1214189-90.040374s63.6202141-38.998144 99.9664071-47.616078c-11.904665-16.059542-38.208051-27.153292-78.910157-33.28125-40.7021055-6.127959-70.27372-6.127959-88.7148433 0z" transform="matrix(-1 0 0 -1 194.250038 626.381858)"/></g><g transform="matrix(.5 -.8660254 .8660254 .5 32.111907 267.315942)"><path d="m71.1132813 4.59596884c-9.1262679 3.22953593-16.9560181 25.28351736-23.4892505 66.16194416-6.5332325 40.878427-2.8577576 75.80368 11.0264247 104.775758 23.1162012-36.900798 49.8233405-66.914256 80.1214185-90.0403741 30.298079-23.1261182 63.620214-38.9981442 99.966407-47.6160781-11.904665-16.0595415-38.20805-27.1532915-78.910156-33.28124996-40.702106-6.12795845-70.2737205-6.12795845-88.7148437 0z"/><path d="m26.6250387 230.020063c-9.1262679 3.229536-16.95601801 25.283517-23.48925045 66.161944s-2.85775752 75.803679 11.02642475 104.775758c23.1162012-36.900798 49.8233408-66.914256 80.1214189-90.040374s63.6202141-38.998144 99.9664071-47.616078c-11.904665-16.059542-38.208051-27.153292-78.910157-33.28125-40.7021055-6.127959-70.27372-6.127959-88.7148433 0z" transform="matrix(-1 0 0 -1 194.250038 626.381858)"/></g></g></g></svg>

<svg viewBox="0 0 526 526" xmlns="http://www.w3.org/2000/svg" xmlns:xlink="http://www.w3.org/1999/xlink"> <g id="Page-1" stroke="none" stroke-width="1" fill="none" fill-rule="evenodd"> <path d="M263.003891,512.004637 C400.522793,512.004637 512.003891,400.523539 512.003891,263.004637 C512.003891,125.485734 400.522793,14.0046366 263.003891,14.0046366 C125.484988,14.0046366 14.0038906,125.485734 14.0038906,263.004637 C13.8218575,285.735983 18.8273699,314.123655 29.020428,348.167652 C39.213486,382.211649 52.6246759,408.671486 69.2539975,427.547161" id="Oval" stroke="#000000" stroke-width="28" stroke-linecap="round" transform="translate(262.999182, 263.004637) rotate(-80.000000) translate(-262.999182, -263.004637) "></path> <g id="Group" transform="translate(146.000000, 63.575906)" fill="#000000"> <path d="M71.1132813,4.59596884 C61.9870134,7.82550477 54.1572632,29.8794862 47.6240308,70.757913 C41.0907983,111.63634 44.7662732,146.561593 58.6504555,175.533671 C81.7666567,138.632873 108.473796,108.619415 138.771874,85.4932969 C169.069953,62.3671787 202.392088,46.4951527 238.738281,37.8772188 C226.833616,21.8176773 200.530231,10.7239273 159.828125,4.59596884 C119.126019,-1.53198961 89.5544045,-1.53198961 71.1132813,4.59596884 Z" id="Path"></path> <path d="M26.6250387,230.020063 C17.4987708,233.249599 9.66902069,255.30358 3.13578825,296.182007 C-3.39744419,337.060434 0.278030732,371.985686 14.162213,400.957765 C37.2784142,364.056967 63.9855538,334.043509 94.2836319,310.917391 C124.58171,287.791273 157.903846,271.919247 194.250039,263.301313 C182.345374,247.241771 156.041988,236.148021 115.339882,230.020063 C74.6377765,223.892104 45.066162,223.892104 26.6250387,230.020063 Z" id="Path" transform="translate(97.125019, 313.190929) rotate(-180.000000) translate(-97.125019, -313.190929) "></path> </g> <g id="Group" transform="translate(265.500000, 264.075906) rotate(-300.000000) translate(-265.500000, -264.075906) translate(146.000000, 63.575906)" fill="#000000"> <path d="M71.1132813,4.59596884 C61.9870134,7.82550477 54.1572632,29.8794862 47.6240308,70.757913 C41.0907983,111.63634 44.7662732,146.561593 58.6504555,175.533671 C81.7666567,138.632873 108.473796,108.619415 138.771874,85.4932969 C169.069953,62.3671787 202.392088,46.4951527 238.738281,37.8772188 C226.833616,21.8176773 200.530231,10.7239273 159.828125,4.59596884 C119.126019,-1.53198961 89.5544045,-1.53198961 71.1132813,4.59596884 Z" id="Path"></path> <path d="M26.6250387,230.020063 C17.4987708,233.249599 9.66902069,255.30358 3.13578825,296.182007 C-3.39744419,337.060434 0.278030732,371.985686 14.162213,400.957765 C37.2784142,364.056967 63.9855538,334.043509 94.2836319,310.917391 C124.58171,287.791273 157.903846,271.919247 194.250039,263.301313 C182.345374,247.241771 156.041988,236.148021 115.339882,230.020063 C74.6377765,223.892104 45.066162,223.892104 26.6250387,230.020063 Z" id="Path" transform="translate(97.125019, 313.190929) rotate(-180.000000) translate(-97.125019, -313.190929) "></path> </g> <g id="Group" transform="translate(265.500000, 264.075906) rotate(-60.000000) translate(-265.500000, -264.075906) translate(146.000000, 63.575906)" fill="#000000"> <path d="M71.1132813,4.59596884 C61.9870134,7.82550477 54.1572632,29.8794862 47.6240308,70.757913 C41.0907983,111.63634 44.7662732,146.561593 58.6504555,175.533671 C81.7666567,138.632873 108.473796,108.619415 138.771874,85.4932969 C169.069953,62.3671787 202.392088,46.4951527 238.738281,37.8772188 C226.833616,21.8176773 200.530231,10.7239273 159.828125,4.59596884 C119.126019,-1.53198961 89.5544045,-1.53198961 71.1132813,4.59596884 Z" id="Path"></path> <path d="M26.6250387,230.020063 C17.4987708,233.249599 9.66902069,255.30358 3.13578825,296.182007 C-3.39744419,337.060434 0.278030732,371.985686 14.162213,400.957765 C37.2784142,364.056967 63.9855538,334.043509 94.2836319,310.917391 C124.58171,287.791273 157.903846,271.919247 194.250039,263.301313 C182.345374,247.241771 156.041988,236.148021 115.339882,230.020063 C74.6377765,223.892104 45.066162,223.892104 26.6250387,230.020063 Z" id="Path" transform="translate(97.125019, 313.190929) rotate(-180.000000) translate(-97.125019, -313.190929) "></path> </g> </g> </svg>
